src/assets/pizzahub.svg

<svg width="141" height="35" viewBox="0 0 141 35" fill="none" xmlns="http://www.w3.org/2000/svg">
<path d="M36.7662 14.0747C36.7662 14.0747 35.553 3.83375 26.8487 1.06595C21.9963 -0.491551 19.5707 -0.0274514 16.6051 0.502449C13.1133 1.11565 8.91932 2.62345 5.9177 5.22535C3.50498 7.24776 1.77889 9.98288 0.981479 13.0471C0.554954 14.8509 0.504726 16.7247 0.833995 18.5491C0.948935 19.2449 1.93216 19.8917 1.93216 18.7647C2.0471 6.17035 12.3122 3.81695 12.6694 3.75045C12.8003 3.71755 12.9319 3.70075 13.0468 3.66785C13.2075 3.6276 13.373 3.61087 13.5384 3.61815C13.5662 3.62218 13.5919 3.63529 13.6117 3.65547C13.6314 3.67565 13.6441 3.7018 13.6478 3.72994C13.6515 3.75808 13.646 3.78666 13.6321 3.81134C13.6182 3.83602 13.5968 3.85544 13.571 3.86665C12.7511 4.26425 9.55496 5.35835 7.817 6.89905C5.2746 9.04068 3.57724 12.0339 3.0338 15.334C2.83179 17.7625 2.87029 20.2053 3.14874 22.6259C3.46271 24.269 4.12715 25.8231 5.09581 27.1801C6.95196 29.431 9.31995 31.1938 11.9971 32.3174C13.0471 32.6164 14.1146 32.8488 15.1933 33.0132C15.2422 33.0216 15.2862 33.0482 15.3167 33.0878C15.3471 33.1275 15.3617 33.1772 15.3576 33.2272C15.3536 33.2771 15.331 33.3238 15.2946 33.3578C15.2581 33.3918 15.2104 33.4107 15.1607 33.4109C14.0293 33.5928 11.3248 32.9636 9.07927 31.8533C7.55846 31.045 6.20599 29.9479 5.09581 28.6221C3.84946 27.2634 3.17782 25.8382 2.71875 25.9208C1.94809 26.0867 2.60381 27.7268 2.94794 28.3568C4.07818 30.2894 5.66688 31.9068 7.5705 33.0629C10.2955 34.5297 13.3762 35.1851 16.4549 34.9529C23.5175 34.3565 27.8638 30.9097 29.7984 28.2245C30.9298 26.6502 33.4536 23.3357 33.3886 18.4805C33.3719 17.7014 33.4543 12.3324 31.7005 9.53175C31.3072 8.90175 30.1079 6.28375 25.619 4.04655C24.6465 3.52164 23.5855 3.18522 22.4906 3.05465C21.9658 3.03785 20.8981 2.98815 20.9992 2.35885C21.065 1.91155 23.6878 2.50795 23.9662 2.57445C26.125 3.31724 28.1428 4.42678 29.9327 5.85535C35.1258 9.86565 34.6044 18.3671 34.6044 18.3671C34.3752 27.3971 29.1621 31.2269 25.3953 33.4969C25.3295 33.5466 25.0491 33.8946 25.1329 34.0275C25.2167 34.1605 25.3953 34.1437 25.5754 34.1269C27.0177 33.9778 28.4274 32.9005 29.6239 31.9394C35.8203 27.0338 36.1326 23.1894 36.492 21.7474C36.9484 19.2166 37.0417 16.6325 36.7689 14.0747M2.16205 22.7085C2.17076 23.1814 2.2201 23.6527 2.30953 24.1169C2.32418 24.2013 2.31672 24.288 2.2879 24.3685C2.25907 24.449 2.20988 24.5205 2.14523 24.5758C2.08058 24.6311 2.00272 24.6683 1.91942 24.6837C1.83611 24.6991 1.75027 24.6922 1.67043 24.6637C1.36691 24.6118 1.08023 24.4866 0.834687 24.2989C0.599129 24.0853 0.438114 23.8005 0.375616 23.4869C0.17897 22.7911 -0.230939 20.7359 1.03133 20.7527C1.16712 20.7548 1.30077 20.7872 1.42265 20.8477C1.54454 20.9082 1.65163 20.9953 1.73621 21.1027C2.02397 21.5888 2.1717 22.1464 2.16274 22.7127" fill="#1C1A1A"/>
<path d="M27.3061 16.5111C27.1261 16.4446 26.9599 16.3788 26.8304 16.3291C26.3547 16.1303 25.1915 15.8321 24.2567 15.5836C23.7319 15.4513 23.2077 15.3036 23.0928 15.2686C22.9103 14.7377 22.7625 14.1951 22.6503 13.6446C22.6189 13.4649 22.5752 13.2876 22.5194 13.114C22.4377 12.8158 22.3228 12.6499 22.0438 12.6828H22.0271C21.9288 12.6996 20.5357 13.0475 18.2736 13.6439C16.7502 14.0415 15.1757 14.4391 15.0774 14.4559C14.9465 14.4727 14.8807 14.5385 13.8809 16.1128C13.5859 16.5769 13.2085 17.1733 13.1594 17.2398C13.1268 17.2566 12.9136 17.356 12.6837 17.4715C12.0605 17.7697 10.8834 18.3164 9.88079 18.8967C8.67601 19.5621 7.53467 20.3387 6.47134 21.2165C6.43916 21.2626 6.42188 21.3176 6.42188 21.374C6.42188 21.4304 6.43916 21.4855 6.47134 21.5315C6.52737 21.5967 6.59903 21.6461 6.67942 21.6752C6.75981 21.7042 6.84625 21.7119 6.93042 21.6974C6.9759 21.6963 7.02059 21.6851 7.06128 21.6645C7.27455 21.6148 14.0443 20.2393 17.9128 19.5932C18.8822 19.4273 20.1091 19.2782 21.5521 19.1123C25.1091 18.7308 28.684 18.532 28.8959 18.5523C29.0027 18.5608 29.1101 18.5442 29.2096 18.5041C29.3091 18.4639 29.3982 18.4011 29.4699 18.3206C29.5837 18.1866 29.6475 18.0164 29.6499 17.8397C29.6174 17.475 28.8793 17.1271 27.3061 16.5139" fill="white"/>
<path d="M130.957 23.5869H132.055V23.8186H131.645V24.9953H131.383V23.8186H130.957V23.5869ZM132.252 23.5869H132.662L133.038 24.6642L133.416 23.5869H133.826V24.9953H133.563V23.8186L133.153 24.9953H132.94L132.53 23.8186V24.9953H132.268V23.5869H132.252Z" fill="#1C1A1A"/>
<path d="M118.433 22.7251C118.892 21.3496 119.482 18.1681 117.564 17.6704C117.213 17.5944 116.85 17.5949 116.499 17.6721C116.149 17.7492 115.818 17.9011 115.531 18.1177C115.531 18.8471 116.317 18.698 116.334 19.4106C115.842 20.8855 113.777 23.6197 115.547 25.2605C117.14 26.7354 119.727 24.9623 120.533 24.3659C121.139 23.9018 121.663 23.2886 122.172 23.206C122.352 25.096 123.072 26.3875 124.745 26.6199C125.237 26.0732 124.811 25.4432 124.827 24.7474C124.926 23.558 125.14 22.3812 125.466 21.2341C125.729 20.0742 126.384 18.7981 125.515 17.7208C124.515 17.4891 124.089 18.334 123.646 18.8807C122.317 20.6493 120.505 21.9858 118.433 22.7251M72.5677 16.1794C71.2397 15.6985 68.9942 16.0135 67.0284 15.8994C65.2579 15.8 62.9466 15.1539 63.0616 16.6946C63.1924 18.5146 66.8151 18.3186 68.7006 18.1366C67.3725 19.3798 65.7994 20.5866 64.2913 21.8466C62.9798 22.9568 60.5869 24.2658 61.2447 26.7522C62.7202 27.5971 64.4741 26.7522 66.4246 26.6696C70.0944 26.5373 73.2276 27.6496 76.7188 27.3325C78.0794 27.2163 80.2265 26.7522 80.1116 25.2444C79.3409 24.7803 78.6852 25.2612 77.9312 25.3438C74.341 25.7253 70.9641 23.703 66.883 23.9683C67.932 22.8581 69.3065 21.764 70.5223 20.6041C71.6205 19.5604 73.2435 18.2178 72.5712 16.1794M61.6823 15.2876C61.602 15.2305 61.5108 15.191 61.4145 15.1717C61.3182 15.1524 61.219 15.1537 61.1232 15.1756C61.0274 15.1974 60.9373 15.2393 60.8585 15.2985C60.7797 15.3577 60.7141 15.4329 60.6658 15.5193C59.0428 17.4912 55.3709 20.574 55.6991 23.8052C55.814 24.9651 56.4698 26.4232 57.9446 25.9262C58.3711 25.5447 58.207 25.0162 58.4037 24.5178C59.5808 21.6009 62.9937 19.5625 61.6823 15.2876ZM77.7137 21.5022C78.7628 20.5411 79.6151 19.6122 80.8116 18.4859C81.6148 17.7236 83.7786 16.3978 83.1554 14.757C82.8092 13.8624 81.2859 13.6797 80.1884 13.6797C78.6312 13.6797 76.6474 14.1606 75.041 14.1109C74.4871 14.0941 73.9754 13.63 73.533 13.9786C72.074 17.0446 76.6641 16.8486 78.9262 16.5973C77.2872 18.3872 74.4185 19.4673 72.9922 21.4693C72.7313 21.7674 72.5482 22.1266 72.4595 22.5144C72.3707 22.9021 72.3791 23.3061 72.4839 23.6897C73.0905 24.1867 73.7788 23.8388 74.4511 23.822C77.4672 23.7226 80.9259 24.732 83.188 23.6561C83.6062 23.3731 84.0059 23.0631 84.3845 22.7279C87.1382 23.6225 89.0887 22.0321 90.6958 21.1368C91.6652 22.4626 95.63 22.5452 95.9582 20.8218C95.335 19.7445 93.6144 20.3577 93.2861 19.1649C92.9586 17.9385 95.0401 16.1654 93.7452 14.8396C93.237 14.4896 92.6796 15.0384 92.368 14.8228C88.4178 14.3258 84.3028 16.4965 83.3029 19.4463C83.1154 20.2623 83.1436 21.1138 83.3846 21.9152C81.7124 22.5949 79.5486 21.7493 77.7131 21.5008M86.7941 19.9265C87.2206 18.1702 88.7938 17.4905 90.5809 17.0264C91.0725 17.0432 90.3676 17.557 90.4168 17.8384C90.2529 18.162 90.1632 18.5187 90.1544 18.8821C89.0562 19.2468 88.2689 19.9104 86.7941 19.9265ZM133.971 11.4908C132.545 11.1093 131.955 12.2202 131.119 13.231C130.447 14.043 130.037 14.8718 129.643 14.9712C128.693 15.2512 127.201 14.358 126.398 14.5897C126.201 14.6581 126.027 14.7816 125.897 14.9459C125.766 15.1102 125.684 15.3086 125.661 15.5179C125.628 16.7779 127.136 16.9599 128.349 17.4079C127.668 18.7494 127.129 20.1604 126.743 21.617C126.397 23.0751 126.006 25.2297 126.825 26.7711C127.808 26.6052 128.054 25.4124 128.382 24.6662C129.408 22.0836 130.63 19.5848 132.037 17.1923C134.184 16.9678 136.307 16.5518 138.381 15.9491C139.02 15.7832 139.922 15.8497 140.152 15.1371C139.692 14.5904 138.791 14.7724 138.054 14.7724C136.3 14.7556 134.414 14.8718 133.234 14.855C133.628 13.9765 134.84 12.8992 133.971 11.4908ZM66.6988 8.98763C64.9449 8.40733 62.0596 9.79963 61.1256 11.1751C60.519 12.0536 60.3224 13.7938 61.4718 14.1081C62.9307 14.5057 64.0289 12.8152 64.652 12.1362C65.6027 11.0925 66.4225 10.3631 66.7009 8.98623M106.763 16.311C107.37 15.121 107.763 14.0409 108.419 12.566C108.696 11.9199 110.304 8.95333 108.78 8.58863C108.763 8.58863 108.681 8.57183 108.665 8.58863C106.075 9.31803 104.239 14.3223 102.632 16.3936C100.665 16.3439 98.2556 16.1948 98.3706 17.6536C98.4523 18.8436 100.171 19.0788 101.173 19.6591C100.813 20.819 98.5997 25.4922 100.485 26.6857C102.452 27.9457 103.485 25.012 103.928 23.7856C104.37 22.3835 104.913 21.0156 105.551 19.6927C107.108 19.5765 108.829 19.0466 110.092 19.0298C109.746 20.3885 108.994 22.2946 109.815 24.0698C111.257 25.0141 112.339 23.9872 112.831 23.0422C113.634 21.5344 113.749 18.866 114.339 17.6564C115.273 17.0964 116.716 17.0264 116.945 15.8007C116.404 15.2701 115.585 15.8175 114.88 15.7839C115.165 14.7554 115.504 13.7431 115.896 12.7515C116.224 11.7407 116.88 10.5115 116.093 9.47063C114.487 9.75063 113.798 11.2269 113.109 12.3707C112.355 13.6468 111.749 15.0055 111.011 16.2151C109.569 16.248 108.29 16.3971 106.765 16.3145M48.552 19.2776C49.1419 18.5979 50.2076 18.7309 51.1257 18.4824C52.7487 18.0351 55.2567 16.8416 55.1909 14.7724C55.1251 12.9524 53.3906 11.8891 51.3549 11.5741C49.9285 16.5294 47.5189 20.9373 45.2243 25.2458C44.536 26.5548 43.8471 28.477 42.044 28.6268C41.1591 27.8477 41.4541 26.7207 41.6016 25.9255C42.1243 23.5352 42.9383 21.2196 44.025 19.0319C45.3168 16.2703 47.0072 13.7181 49.0409 11.4586C48.2051 11.4915 47.6803 11.6077 47.0571 11.2101C46.5322 8.79093 49.0242 8.27713 50.7456 8.16093C54.7124 7.91243 58.7125 10.1993 58.6142 14.309C58.5325 17.6564 54.9749 19.8439 51.6146 20.1092C50.6639 20.2086 49.205 20.3248 48.5492 19.2804" fill="#1C1A1A"/>
</svg>

<svg xmlns="http://www.w3.org/2000/svg" width="141" height="35" fill="none"><path fill="#1C1A1A" d="M36.766 14.075S35.553 3.834 26.85 1.066C21.996-.492 19.57-.027 16.605.502c-3.492.614-7.686 2.121-10.687 4.723A15.2 15.2 0 0 0 .98 13.047a13.5 13.5 0 0 0-.147 5.502c.115.696 1.098 1.343 1.098.216C2.047 6.17 12.312 3.817 12.67 3.75c.131-.032.263-.05.378-.082q.242-.06.491-.05a.13.13 0 0 1 .11.112.13.13 0 0 1-.077.137c-.82.397-4.016 1.491-5.754 3.032a14 14 0 0 0-4.783 8.435 37 37 0 0 0 .115 7.292 11.6 11.6 0 0 0 1.947 4.554 17.95 17.95 0 0 0 6.901 5.137q1.577.45 3.196.696a.2.2 0 0 1 .165.214.197.197 0 0 1-.197.184c-1.132.182-3.836-.447-6.082-1.558a13.4 13.4 0 0 1-3.983-3.23c-1.247-1.36-1.918-2.785-2.377-2.702-.77.166-.115 1.806.229 2.436a13.44 13.44 0 0 0 4.623 4.706 16.17 16.17 0 0 0 8.884 1.89c7.063-.597 11.409-4.043 13.343-6.729 1.132-1.574 3.656-4.888 3.59-9.744-.016-.779.066-6.148-1.687-8.948-.394-.63-1.593-3.248-6.082-5.485a8.8 8.8 0 0 0-3.128-.992c-.525-.017-1.593-.067-1.492-.696.066-.447 2.689.149 2.967.215a20 20 0 0 1 5.967 3.281c5.193 4.01 4.671 12.512 4.671 12.512-.229 9.03-5.442 12.86-9.209 15.13-.066.05-.346.398-.262.53.084.133.262.117.442.1 1.443-.15 2.852-1.227 4.049-2.188 6.196-4.905 6.509-8.75 6.868-10.192.456-2.53.55-5.114.277-7.672M2.162 22.709q.013.71.148 1.408a.5.5 0 0 1-.165.459.48.48 0 0 1-.475.088 1.9 1.9 0 0 1-.835-.365 1.5 1.5 0 0 1-.46-.812c-.196-.696-.606-2.751.656-2.734a.91.91 0 0 1 .705.35c.288.486.436 1.043.427 1.61"/><path fill="#fff" d="M27.306 16.511c-.18-.066-.346-.132-.476-.182-.475-.199-1.638-.497-2.573-.745a34 34 0 0 1-1.164-.315q-.274-.798-.443-1.624a4 4 0 0 0-.13-.531c-.082-.298-.197-.464-.476-.431h-.017c-.098.017-1.491.364-3.753.96-1.524.398-3.098.796-3.197.813-.13.017-.196.083-1.196 1.657-.295.464-.672 1.06-.722 1.127-.032.017-.245.116-.475.232-.623.298-1.8.844-2.803 1.425a22.3 22.3 0 0 0-3.41 2.32.275.275 0 0 0 0 .315.5.5 0 0 0 .46.165.3.3 0 0 0 .13-.032c.214-.05 6.983-1.426 10.852-2.072.97-.166 2.196-.315 3.64-.48 3.556-.382 7.131-.581 7.343-.56a.7.7 0 0 0 .574-.232.76.76 0 0 0 .18-.481c-.033-.365-.77-.713-2.344-1.326"/><path fill="#1C1A1A" d="M130.957 23.587h1.098v.232h-.41v1.176h-.262V23.82h-.426zm1.295 0h.41l.376 1.077.378-1.077h.41v1.408h-.263V23.82l-.41 1.176h-.213l-.41-1.176v1.176h-.262v-1.408zM118.433 22.725c.459-1.375 1.049-4.557-.869-5.055a2.5 2.5 0 0 0-2.033.448c0 .73.786.58.803 1.293-.492 1.474-2.557 4.209-.787 5.85 1.593 1.474 4.18-.299 4.986-.895.606-.464 1.13-1.077 1.639-1.16.18 1.89.9 3.182 2.573 3.414.492-.547.066-1.177.082-1.873.099-1.189.313-2.366.639-3.513.263-1.16.918-2.436.049-3.513-1-.232-1.426.613-1.869 1.16a11.26 11.26 0 0 1-5.213 3.844M72.568 16.18c-1.328-.48-3.574-.165-5.54-.28-1.77-.099-4.081-.745-3.966.796.13 1.82 3.753 1.624 5.639 1.442-1.328 1.243-2.902 2.45-4.41 3.71-1.311 1.11-3.704 2.419-3.046 4.905 1.475.845 3.23 0 5.18-.082 3.67-.133 6.803.98 10.294.662 1.36-.116 3.508-.58 3.393-2.088-.771-.464-1.427.017-2.18.1-3.591.381-6.968-1.641-11.049-1.376 1.049-1.11 2.424-2.204 3.64-3.364 1.098-1.044 2.72-2.386 2.048-4.425m-10.889-.891a.7.7 0 0 0-1.016.231c-1.623 1.972-5.295 5.055-4.967 8.286.115 1.16.77 2.618 2.246 2.121.426-.381.262-.91.459-1.408 1.177-2.917 4.59-4.956 3.278-9.23m16.032 6.214c1.049-.96 1.901-1.89 3.098-3.016.803-.762 2.967-2.088 2.343-3.729-.346-.895-1.87-1.077-2.967-1.077-1.557 0-3.54.48-5.147.43-.554-.016-1.066-.48-1.508-.131-1.459 3.066 3.131 2.87 5.393 2.618-1.639 1.79-4.508 2.87-5.934 4.872a2.415 2.415 0 0 0-.508 2.22c.607.498 1.295.15 1.967.133 3.016-.1 6.475.91 8.737-.166a12 12 0 0 0 1.197-.928c2.753.894 4.704-.696 6.31-1.591.97 1.326 4.935 1.408 5.263-.315-.623-1.078-2.344-.464-2.672-1.657-.327-1.226 1.754-3 .46-4.325-.509-.35-1.066.198-1.378-.017-3.95-.497-8.065 1.674-9.065 4.623a4.8 4.8 0 0 0 .082 2.47c-1.673.679-3.836-.167-5.672-.415m9.081-1.575c.427-1.756 2-2.435 3.787-2.9.492.017-.213.531-.164.812-.164.324-.254.68-.263 1.044-1.098.365-1.885 1.028-3.36 1.044m47.177-8.435c-1.426-.382-2.016.73-2.852 1.74-.672.812-1.082 1.64-1.476 1.74-.95.28-2.442-.613-3.245-.381a1.113 1.113 0 0 0-.737.928c-.033 1.26 1.475 1.442 2.688 1.89a21.4 21.4 0 0 0-1.606 4.209c-.346 1.458-.737 3.613.082 5.154.983-.166 1.229-1.359 1.557-2.105a54 54 0 0 1 3.655-7.474c2.147-.224 4.27-.64 6.344-1.243.639-.166 1.541-.1 1.771-.812-.46-.547-1.361-.365-2.098-.365-1.754-.016-3.64.1-4.82.083.394-.879 1.606-1.956.737-3.364M66.699 8.988c-1.754-.58-4.64.812-5.573 2.187-.607.879-.804 2.619.346 2.933 1.459.398 2.557-1.293 3.18-1.972.95-1.043 1.77-1.773 2.049-3.15m40.062 7.325c.607-1.19 1-2.27 1.656-3.745.277-.646 1.885-3.613.361-3.977-.017 0-.099-.017-.115 0-2.59.729-4.426 5.733-6.033 7.805-1.967-.05-4.376-.2-4.261 1.26.081 1.19 1.8 1.425 2.802 2.005-.36 1.16-2.573 5.833-.688 7.027 1.967 1.26 3-1.674 3.443-2.9.442-1.402.985-2.77 1.623-4.093 1.557-.117 3.278-.646 4.541-.663-.346 1.358-1.098 3.265-.277 5.04 1.442.944 2.524-.083 3.016-1.028.803-1.508.918-4.176 1.508-5.386.934-.56 2.377-.63 2.606-1.855-.541-.53-1.36.017-2.065-.017q.428-1.543 1.016-3.033c.328-1.01.984-2.24.197-3.28-1.606.28-2.295 1.756-2.984 2.9-.754 1.276-1.36 2.634-2.098 3.844-1.442.033-2.721.182-4.246.1m-58.213 2.963c.59-.68 1.656-.547 2.574-.796 1.623-.447 4.13-1.64 4.065-3.71-.066-1.82-1.8-2.883-3.836-3.198-1.426 4.955-3.836 9.363-6.13 13.672-.689 1.309-1.378 3.231-3.181 3.38-.885-.778-.59-1.905-.442-2.7a29.8 29.8 0 0 1 2.423-6.894 30.9 30.9 0 0 1 5.016-7.573c-.836.033-1.36.149-1.984-.249-.525-2.42 1.967-2.933 3.689-3.05 3.966-.248 7.966 2.04 7.868 6.149-.081 3.347-3.64 5.535-7 5.8-.95.1-2.409.216-3.065-.829"/></svg>
